X:1
T:Wake the Song
T:Wake the Song
T:William Fiske Sherwin
T:William Fiske Sherwin, 1871
T:Public Domain Courtesy of the Cyber Hymnal™
T:Public Domain Courtesy of the Cyber Hymnal™
C:William Fiske Sherwin
Z:Public Domain
Z:Courtesy of the Cyber Hymnal™
%%score ( 1 2 ) ( 3 4 )
L:1/8
Q:1/4=110
M:4/4
K:F
V:1 treble 
V:2 treble 
V:3 bass 
V:4 bass 
V:1
 [CA]>[B,G] | [A,F]2 C2 [B,D]2 [DB]2 | ([CA]3 [B,G]) [A,F]2 [B,E]>[A,F] | %3
w: 1.~Wake the|song of joy and|glad- * ness; Hi- ther|
w: 2.~Joy- ful-|ly with songs and|ban- * ners, We will|
w: 3.~Thanks to|Thee, O ho- ly|Fa- * ther, For the|
 [CG]2 [CG]2 [=B,A]2 [B,G]2 | [CG]6 [CA]>[B,G] | [A,F]2 [A,C]2 [B,D]2 [DB]2 | %6
w: bring your nob- lest|lays; Ban- ish|ev- ery thought of|
w: greet the fest- al|day; Shout a-|loud our glad ho-|
w: mer- cies of the|year; May each|heart, as here we|
 ([CA]3 [B,G]) [A,F]2 [CF]>[CA] | [Cc]2 [DB]2 [CA]2 [CG]2 | [CF]6 C>[CD] | %9
w: sad- * ness, Pour- ing|forth your high- est|praise. Sing to|
w: san- * nas, And our|grate- ful homa- ge|pay. We will|
w: ga- * ther, Swell with|gra- ti- tude sin-|cere. Thanks to|
 [CE]2 [DF]2 [EG]2 [FA]2 | [GB]2 [GB]4 [FA]>[EG] | F2 [EG]2 [FA]2 [F=B]2 | [Ec]6 [Gc]>[GB] | %13
w: Him whose care has|brought us Once a-|gain with friends to|meet, And whose|
w: chant our Sav- ior’s|glo- ry While our|thoughts we raise a-|bove, Tell- ing|
w: Thee, O lov- ing|Sav- ior, For re-|demp- tion through Thy|blood. Breathe up-|
 [FA]2 [EG]2 [DF]2 [^CE]2 | D2 [DF]4 [CE]>[B,D] | [A,C]2 [CF]2 [CA]2 [B,G]2 | [A,F]6 || %17
w: lov- ing voice has|taught us, Of the|way to Je- sus’|feet.|
w: still “the old old|sto- ry,” Pre- cious|theme— re- deem- ing|love!|
w: on us, Ho- ly|Spir- it, Sweet- ly|draw us near to|God.|
"^Refrain" E>F | (z2 [DF]>)[EG] x6 | [FA]6 [FA]2 | [FB]3 [FB] [FB]2 [Fd]2 | %21
w: Wake the|* song,|wake the|song, The song of|
w: ||||
w: ||||
 [Fc]4 [CA]2 [A,F]>[B,G] | [CA]6 [B,G]>[CA] | [DB]6 [CG]2 | [Cc]3 [DB] [CA]2 [CG]2 | [CF]6 |] %26
w: joy and glad- ness,|Wake the song,|wake the|song, The song of|Ju-|
w: |||||
w: |||||
V:2
 x2 | x2 C2 x4 | x8 | x8 | x8 | x8 | x8 | x8 | x8 | x8 | x8 | F2 x6 | x8 | x8 | D2 x6 | x8 | x6 || %17
 x2 | (G6 E>E E2) | x8 | x8 | x8 | x8 | x8 | x8 | x6 |] %26
V:3
 F,>F, | F,2 [A,,F,]2 [B,,F,]2 [B,,F,]2 | [F,,F,]4 [F,,F,]2 [C,G,]>[C,F,] | %3
w: ~ ~|~ ~ ~ ~|~ ~ ~ ~|
 [C,E,]2 [C,E,]2 [G,,F,]2 [G,,F,]2 | [C,E,]6 [C,E,]>[C,E,] | [F,,F,]2 [F,,F,]2 [B,,F,]2 [B,,F,]2 | %6
w: ~ ~ ~ ~|~ ~ ~|~ ~ ~ ~|
 [F,,F,]4 [F,,F,]2 [F,,A,]>[F,,A,] | [A,,F,]2 [B,,F,]2 [C,F,]2 [C,B,]2 | [F,,A,]6 [C,E,]>[C,F,] | %9
w: ~ ~ ~ ~|~ ~ ~ ~|~ ~ ~|
 [C,G,]2 [C,G,]2 [C,C]2 [C,C]2 | [C,C]2 [C,C]4 [C,C]>[C,B,] | [D,A,]2 [C,C]2 [F,C]2 [D,G,]2 | %12
w: ~ ~ ~ ~|~ ~ ~ ~|~ ~ ~ ~|
 [C,G,]6 [E,C]>[E,C] | [F,C]2 [C,B,]2 [D,A,]2 (A,G,) | [B,,F,]2 [B,,F,]4 [B,,F,]>[B,,F,] | %15
w: ~ ~ ~|~ ~ ~ ~ *|~ ~ ~ ~|
 [C,F,]2 [C,A,]2 [C,F,]2 [C,E,]2 | [F,,F,]6 || z2 | z2 [C,C]>[C,C] [C,C]2 z2 x2 | %19
w: ~ ~ ~ ~|~||~ Wake the|
 z2 [F,C]>[F,C] [F,C]2 [F,C]2 | [B,,D]3 [B,,D] [B,,D]2 [B,,B,]2 | [F,A,]4 [F,C]2 z2 | %22
w: song, wake the song,|~ ~ ~ ~|~ ~|
 z2 F,>F, F,2 z2 | z2 [B,,F,]>[B,,F,] [B,,F,]2 [C,E,]2 | [A,,F,]3 [B,,F,] [C,F,]2 [C,B,]2 | %25
w: ~ Wake the|song, wake the song,||
 [F,,A,]6 |] %26
w: |
V:4
 F,>F, | F,2 x6 | x8 | x8 | x8 | x8 | x8 | x8 | x8 | x8 | x8 | x8 | x8 | x6 A,,2 | x8 | x8 | x6 || %17
 x2 | x10 | x8 | x8 | x8 | x2 F,>F, x4 | x8 | x8 | x6 |] %26

